X:1
T:Title
%%score 1 { ( 2 4 ) | ( 3 5 ) }
L:1/8
M:4/4
K:Eb
V:1 treble nm="Choir Aahs"
V:2 bass nm="Grand Piano"
V:4 bass 
V:3 bass 
V:5 bass 
V:1
 z4 z2[Q:1/4=100] G2 | G2 GG B3 E | G F3 z2 F2 | F2 GA c2 B2 | G6 B2 | e2 ee d3 d | c4 B2 B2 | %7
 B2 BB c3 =A |[M:3/4] B6 |[M:1/4] z2 |[M:4/4] z8 | z8 | z8 |[M:3/4] z6 |[M:1/4] z2 |[M:4/4] z8 | %16
 z8 | z8[Q:1/4=97][Q:1/4=94][Q:1/4=91][Q:1/4=88][Q:1/4=84][Q:1/4=81][Q:1/4=78] |[M:3/4] z6 |] %19
V:2
 z8 | z B,[K:treble]GB,[K:bass] z B,[K:treble]GB, | z B,[K:treble]FB,[K:bass] z B,[K:treble]FB, | %3
 [DF]B,GA [Ac]B,BB, | [EG]B,GB, GB,[DA]B, | z B,BB, z D=BD | z CcC[K:bass] z B,[K:treble]BB, | %7
 z FBF z F=AF |[M:3/4] z F BF B2 |[M:1/4] B2 |[M:4/4] B3 B BB[DAB][DAB] | e2- [Ae-]2 [Ge]2 B2 | %12
 c3 c cc[=Af][Ae] |[M:3/4] e2 d2 c2 |[M:1/4] [DAB]2 |[M:4/4] [EGe]>[EGd] [EGc]4 [EG]2 | %16
 [CEB]>[CEA] [CEA]4 [=B,E]2 | [EG][EG][Ed][Ec] [Dc]2 [DB]2 |[M:3/4] [B,E]6 |] %19
V:3
 z8 | z2 .E2 z2 .E2 | z2 .D2 z2 .D2 | z2[K:treble] EF[K:bass] z2 .D2 | z2 .E2 .E2 [F,,F,]2 | %5
 z2 .E2 z2 .F2 | z2 .E2 z2 .[EG]2 | z2 .D2 z2 .E2 |[M:3/4] z2[K:treble] .D2 D2 |[M:1/4] B,2 | %10
[M:4/4] [A,DF]3 [A,DF] [G,EG][G,EG][K:bass]F,F, | z2 C2 B,2 [E,G,E]2 | %12
 [A,E]3 [G,B,=E] [F,=A,F][F,A,F][F,C][K:treble][F,F] |[M:3/4] F4 E2 |[M:1/4][K:bass] B,2 | %15
[M:4/4] E,>E, E,2 z2 _D2 | A,>A, A,4 z F | [B,,B,][B,,B,][B,,G,][B,,G,] [B,,A,]2 [B,,A,]2 | %18
[M:3/4] [E,G,]6 |] %19
V:4
 x8 | E,4[K:treble][K:bass] E,4[K:treble] | B,,4[K:treble][K:bass] B,,4[K:treble] | x8 | x8 | %5
 G,4 G,4 | A,4[K:bass] E,4[K:treble] | F,4 F,4 |[M:3/4] F,6 |[M:1/4] x2 |[M:4/4] x8 | [EG]2 z2 z4 | %12
 x8 |[M:3/4] x6 |[M:1/4] x2 |[M:4/4] x8 | x8 | x8 |[M:3/4] x6 |] %19
V:5
 x8 | E,,4 E,,4 | B,,,4 B,,,4 | [B,,,B,,]4[K:treble][K:bass] [B,,,B,,]4 | [E,,E,]6 z2 | G,,4 G,,4 | %6
 A,,4 E,,4 | F,,4 F,,4 |[M:3/4] B,,6[K:treble] |[M:1/4] x2 |[M:4/4] x6[K:bass] x2 | E,6 z2 | %12
 x7[K:treble] x |[M:3/4] [B,A]6 |[M:1/4][K:bass] x2 |[M:4/4] z4 E,4 | z4 z2 A,,2 | x8 | %18
[M:3/4] x6 |] %19

